X:582
T:
S:Upptecknad, såsom spelemannen Ronander på Ronehamn spelat den. % rättelse i originalboken
R:polka
O:Gotland, Ronehamn
M:2/4
L:1/16
K:G
BABc dgBd|ceAc F2F2|FAce e3d|dgBd G2G2|BABc dgBd|ceAc F2F2|FAce d2FA|G2G2G2 z2::d2B2 cBAB|d2c2 cBc2|DEFG ABcd|e2d2 d^cd2|b2g2 agfg|e2c2 cBc2|DEFG
ABcA|G2G2G2 z2:|

